src/assets/svg/icons/fa/nuevos/classic/light/skull classic light.svg

<svg xmlns="http://www.w3.org/2000/svg" viewBox="0 0 512 512"><!--! Font Awesome Pro 6.4.0 by @fontawesome - https://fontawesome.com License - https://fontawesome.com/license (Commercial License) Copyright 2023 Fonticons, Inc. --><path d="M384 399.6c-.2-10.7 4.9-20.8 13.6-26.9c51.3-36 82.4-89.8 82.4-148.7c0-102.2-96.1-192-224-192S32 121.8 32 224c0 58.8 31.1 112.7 82.4 148.7c8.8 6.1 13.9 16.2 13.6 26.9l0 .4v64c0 8.8 7.2 16 16 16h48V432c0-8.8 7.2-16 16-16s16 7.2 16 16v48h64V432c0-8.8 7.2-16 16-16s16 7.2 16 16v48h48c8.8 0 16-7.2 16-16V400l0-.4zm32-.7c0 .4 0 .7 0 1.1v64c0 26.5-21.5 48-48 48H144c-26.5 0-48-21.5-48-48V400c0-.4 0-.7 0-1.1C37.5 357.8 0 294.7 0 224C0 100.3 114.6 0 256 0S512 100.3 512 224c0 70.7-37.5 133.8-96 174.9zM160 288a32 32 0 1 0 0-64 32 32 0 1 0 0 64zm0-96a64 64 0 1 1 0 128 64 64 0 1 1 0-128zm224 64a32 32 0 1 0 -64 0 32 32 0 1 0 64 0zm-96 0a64 64 0 1 1 128 0 64 64 0 1 1 -128 0z"/></svg>

<svg xmlns="http://www.w3.org/2000/svg" viewBox="0 0 512 512"><path d="M96 256C96 220.7 124.7 192 160 192C195.3 192 224 220.7 224 256C224 291.3 195.3 320 160 320C124.7 320 96 291.3 96 256zM160 288C177.7 288 192 273.7 192 256C192 238.3 177.7 224 160 224C142.3 224 128 238.3 128 256C128 273.7 142.3 288 160 288zM416 256C416 291.3 387.3 320 352 320C316.7 320 288 291.3 288 256C288 220.7 316.7 192 352 192C387.3 192 416 220.7 416 256zM352 224C334.3 224 320 238.3 320 256C320 273.7 334.3 288 352 288C369.7 288 384 273.7 384 256C384 238.3 369.7 224 352 224zM415.1 398.9C415.1 399.3 416 399.6 416 400V464C416 490.5 394.5 512 368 512H144C117.5 512 96 490.5 96 464V400C96 399.6 96 399.3 96.01 398.9C37.48 357.8 0 294.7 0 224C0 100.3 114.6 0 256 0C397.4 0 512 100.3 512 224C512 294.7 474.5 357.8 415.1 398.9V398.9zM383.1 399.6C383.8 388.9 388.9 378.8 397.6 372.7C448.9 336.7 480 282.8 480 224C480 121.8 383.9 32 256 32C128.1 32 32 121.8 32 224C32 282.8 63.11 336.7 114.4 372.7C123.1 378.8 128.2 388.9 128 399.6L128 400V464C128 472.8 135.2 480 144 480H192V432C192 423.2 199.2 416 208 416C216.8 416 224 423.2 224 432V480H288V432C288 423.2 295.2 416 304 416C312.8 416 320 423.2 320 432V480H368C376.8 480 384 472.8 384 464V400L383.1 399.6z"/></svg>
